Adwaita++-Dark/actions/22/tab-new.svg

<svg height="22" viewBox="0 0 22 22" width="22" xmlns="http://www.w3.org/2000/svg">
  <path d="m4 2.0039062s-2 0-2 2v6.9999998c0 1-1 1-1 1h-1v2h16v-2h-1s-1 0-1-1v-6.9999998s0-2-2-2zm3 3h2v2h2v2h-2v1.9999998h-2v-1.9999998h-2v-2h2z" fill="#e6ddff" transform="translate(3 3)"/>
</svg>

<svg xmlns="http://www.w3.org/2000/svg" width="22" height="22" viewBox="0 0 22 22">
 <defs>
  <style id="current-color-scheme" type="text/css">
   .ColorScheme-Text { color:#E6DDFF; } .ColorScheme-Highlight { color:#4285f4; }
  </style>
 </defs>
 <path style="fill:currentColor" class="ColorScheme-Text" d="M 4 2.0039062 C 4 2.0039062 2 2.0039062 2 4.0039062 L 2 11.003906 C 2 12.003906 1 12.003906 1 12.003906 L 0 12.003906 L 0 14.003906 L 16 14.003906 L 16 12.003906 L 15 12.003906 C 15 12.003906 14 12.003906 14 11.003906 L 14 4.0039062 C 14 4.0039062 14 2.0039062 12 2.0039062 L 4 2.0039062 z M 7 5.0039062 L 9 5.0039062 L 9 7.0039062 L 11 7.0039062 L 11 9.0039062 L 9 9.0039062 L 9 11.003906 L 7 11.003906 L 7 9.0039062 L 5 9.0039062 L 5 7.0039062 L 7 7.0039062 L 7 5.0039062 z" transform="translate(3 3)"/>
</svg>
